X: 4277
M: C|
L: 1/8
K: A
|:\
e(aga) f(aga) | e(aga) ecAc | dfdB cecA |\
[1 dcBA GBcd :|[2 GABc A2(BA) |]
|:\
[1 G(e^de) g(ede) | agfe dcBA :|\
[2 gbge faf^d | efgf e=dcd |]


